X:8
T:A Quiet Autumn
C:Sarah Allen
D:Flook: Flatfish, Track 7
M:12/8
L:1/8
R:slide
K:Gmaj
BFG d2B edd d (3cBA | G2D GAE EDD D (3EFG | BFG d2B edd deg |
ace b2g- g (3efg fdB |BFG d2B edd d (3cBA | G2D GAE EDD D (3EFG |
BFG d2B edd deg | afg efd e (3Bcd BcA |Bcd f2B cdf fee |
ceg abb b2a agf | Bcd f2B cdf fee | ace b2g- g (3efg fdB |
Bcd f2B cdf fee | ceg abb b2a agf | Bcd f2B cdf fee | afg efd e (3Bcd BcA :|
